icons/themes/default/update.svg

<svg viewBox="0 0 20 20" fill="none" xmlns="http://www.w3.org/2000/svg">
<path fill-rule="evenodd" clip-rule="evenodd" d="M3.6 9.76427C3.6 13.3474 6.15288 15.7777 9.00203 16.2796L8.81116 17.363C5.49223 16.7782 2.5 13.9362 2.5 9.76427C2.5 7.99679 3.28995 6.60464 4.21942 5.54042C4.92391 4.73379 5.7355 4.08775 6.36707 3.6018L4.36604 3.6018L4.36604 2.5018L7.79899 2.5018C8.10275 2.5018 8.34899 2.74805 8.34899 3.0518L8.34899 6.545L7.24899 6.545L7.24899 4.31214L7.20169 4.34844C6.54777 4.85023 5.744 5.46701 5.04792 6.26401C4.22548 7.20569 3.6 8.35072 3.6 9.76427ZM16.4036 10.2375C16.4036 6.69233 13.9048 4.27608 11.0921 3.73879L11.2985 2.65833C14.5746 3.28416 17.5036 6.11027 17.5036 10.2375C17.5036 12.005 16.7136 13.3972 15.7841 14.4614C15.0797 15.268 14.2681 15.9141 13.6365 16.4L15.6375 16.4L15.6375 17.5L12.2046 17.5C11.9008 17.5 11.6546 17.2538 11.6546 16.95L11.6546 13.4568L12.7546 13.4568L12.7546 15.6897L12.8019 15.6534C13.4558 15.1516 14.2596 14.5348 14.9556 13.7378C15.7781 12.7961 16.4036 11.6511 16.4036 10.2375Z" fill="currentColor"/>
</svg>

<svg xmlns="http://www.w3.org/2000/svg" fill="none" viewBox="0 0 20 20">
  <path fill="currentColor" fill-rule="evenodd" d="M3.6 9.764c0 3.583 2.553 6.014 5.402 6.516l-.19 1.083C5.491 16.778 2.5 13.936 2.5 9.764c0-1.767.79-3.16 1.72-4.224.704-.806 1.516-1.452 2.147-1.938H4.366v-1.1h3.433a.55.55 0 0 1 .55.55v3.493h-1.1V4.312l-.047.036c-.654.502-1.458 1.119-2.154 1.916-.823.942-1.448 2.087-1.448 3.5Zm12.804.474c0-3.546-2.5-5.962-5.312-6.5l.207-1.08c3.276.626 6.205 3.452 6.205 7.58 0 1.767-.79 3.16-1.72 4.223-.704.807-1.516 1.453-2.148 1.939h2.002v1.1h-3.433a.55.55 0 0 1-.55-.55v-3.493h1.1v2.233l.047-.037c.654-.501 1.458-1.118 2.154-1.915.822-.942 1.448-2.087 1.448-3.5Z" clip-rule="evenodd"/>
</svg>
